X:1
T:Stornello (1869)
T:Stornello (1869)
T:Giuseppe Verdi
T:by IMSLP - Pubblico dominio
T:by IMSLP - Pubblico dominio
T:by IMSLP - Pubblico dominio
T:by IMSLP - Pubblico dominio
T:by IMSLP - Pubblico dominio
C:Giuseppe Verdi
Z:by IMSLP - Pubblico dominio
%%score 1 { ( 2 5 ) | ( 3 4 ) }
L:1/8
Q:1/4=104
M:4/4
K:Bb
V:1 treble nm="Voice"
V:2 treble nm="Piano"
V:5 treble 
V:3 bass 
V:4 bass 
V:1
"^Allegro" z2 z z z4 | z8 | z8 |"^CANTO" z8 | z2 z"^semplice" d d d d d | d d z2 z F G A | %6
w: ||||Tu di\- ci che non|m'a\- mi... an\- ch'io non|
 c B z2 z4 | z4 d d/ d/ d d | d2 z2 z D =E ^F | A G z2 z4 | z4 e e/ e/ (.d .d | %11
w: t'a\- mo...|Di\- ci non mi vuoi|ben, non te ne|vo\- glio.|Di\- ci ch'a~un al\- tro|
 .c .c .B .B) (!>!A3 G) | F2 z F (.d .d .d .d | c) F G A (TG3 A/G/) | F2 z2 z4 | z4 F F/ F/ F F | %16
w: pe\- sce~hai te\- so l'a\- _|mo. An\- ch'io~in a\- tro giar\-|din la ro\- sa co\- _ _|glio.|An\- co di que\- sto|
 F (.B .c .d) (!>!d3 c) | B2 z F (.G .G .e .e) | (e d) z2 z (.c .c .c) | %19
w: vo' che ci accor\- dia\- _|mo: Tu fa quel che ti|pa\- re, io quel che|
 (d !fermata!c2)!<(! ^c d!f! d!<)! B G | F D E F (!>!F3 E) | D2 z2 z!f! c d e | %22
w: vo\- glio. Son li\- be\- ra di|me, pa\- dro\- ne~è ognu\- _|no. Ser\- va di|
 !>!e2 !>!d2-!ppp! (3d B"^grazioso" c (3d c B |"^dolciss."!<(!{Bc} (d6!>(! c2)!<)!!>)! | B2 z2 z4 | %25
w: tut\- ti _ e non ser\- voa nes\-|su\- _|no.|
 z8 | z8 | z8 | z2 z"^deciso e marcato" (.d .d .d .d .d) | d2 z2 z F G A | c B z (.d .d .d .d .d) | %31
w: |||Co\- stan\- za nel\- l'a\-|mor èu\- na fol\-|li\- a; Vo\- lu\- bi\- le io|
 d d z2 z D =E ^F | A G z!<(! G e2 d2 | c2 B2 A A G G!<)! | F F z F (.d .d .d .d) | %35
w: so\- no e me ne|van\- to Non tre\- mo|più scon\- tran\- do\- ti per|vi\- a, Né, quan\- do sei lon\-|
 c F G A (!trill(!TG3 A/!trill)!G/) | F2 z (.F .F .F .F .F) | F B c d (!>!d3 c) | %38
w: tan mi strug\- goin pian\- _ _|to. Co\- me usi\- gnuol cheu\-|scì di pri\- gio\- ni\- _|
 B2 z2 G G/ G/ e e | (ed) z2 z (.c .c .c) | d (!fermata!c2 f/4) z/4 F/ (.d!f! .d .B .G) | %41
w: a. Tut\- ta la not\- tee~il|dì _ fol\- leg\- gioe|can\- to. _ Son li\- be\- ra di|
 F D E F (!>!F3 E) | D2 z2 z!f! c d e | !>!e2 !>!d2-!ppp! (3d B"^grazioso" c (3d c B | %44
w: me, pa\- dro\- neè ognu\- _|no; Ser\- va di|tut\- ti _ e non ser\- voa nes\-|
!<(!{Bc} (d6!>(! c2)!<)!!>)! | B2 z2 z4 | z8 | z8 |] %48
w: su\- _|no.|||
V:2
 z2!ff! z !>![B,EG]2 !>![B,CE]2 !>![A,CF] | z !>![F,B,]2 !>![G,B,E]2 !>![G,B,C]2 !>![A,D] | %2
 z !>!B!>!b z z !>!B,!>!B z | z!p! .B,.=G z z .E.=G,.C |!pp! z [F,B,D] z [F,B,D] z [B,D] z [B,D] | %5
 z [B,D] z !^![B,E] z [B,D] z [A,C] | z!ppp! .B.b z z .G.A, z | %7
 z [G,B,D] z [F,B,D] z [B,D] z [B,D] | z [B,D] z !^![CD] z [B,D] z [CD^F] | z .G.g z z .E.^F, z | %10
 z .G,.G.g z [Gce] z [GBd] | z [GBc] z [CGB] z [CFA] z [C_EG] | z [=B,DF] z [CEF] z [DF] z [=EG] | %13
 z [CFA] z [DFA] z [FG] z [_B,=EG] | z!pp! .F.f.F .[G=e].[Bd].[=Ec].[CB] | %15
 z [CFA] z [F,F]2 [G,F]2 [A,_EF] | z [B,DF] z [B,DF] z [^G,=B,F] z [A,CE] | %17
 z [_B,D] z [B,D] GG !arpeggio!ee- | e d2 (d2 c2 B | %19
 [C_EA]2) !fermata!z2!f! z!>(! ([F,F][G,=E][A,_E])!>)! | ([B,D]F,)!p! z [F,B,D] z [CF] z [B,E] | %21
!<(! z [A,D] z [_A,=B,D] z [G,CE] z [G,CE] | z [F,CE] z!<)! [F,_B,-D-]!pp! [B,D]4- | %23
 [B,D][B,D]!>(! z [B,D] z [G,B,D] z [A,C]!>)! | [F,B,] z!f! z !>![B,EG]2 !>![B,CE]2 !>![A,CF] | %25
 z !>![F,B,]2 !>![G,B,E]2 !>![G,B,C]2 !>![A,D] | z !>!B!>!b z z !>!B,!>!B z | %27
 z!p! .B,.=G z z .E.=G,.C | z [F,B,D] z [F,B,D] z [B,D] z [B,D] | %29
 z [B,D] z !^![B,E] z [B,D] z [A,C] | z [F,B,D] z [F,B,D] z [B,D] z [B,D] | %31
 z [B,D] z !^![CD] z [B,D] z [CD^F] | z [B,DA] z [B,DA] z [Gce] z [GBd] | %33
 z [GBc] z [CGB] z [CFA] z [C_EG] | z [=B,DF] z [CEF] z [DF] z [=EG] | %35
 z [CFA] z [CFA] z [FG] z [_B,=EG] | z [A,CF] z [F,F]2 [G,F]2 [A,_EF] | %37
 z [B,DF] z [B,DF] z [^G,=B,F] z [A,CE] | z [_B,D] z [B,D] GG !arpeggio!ee- | e d2 (d2 c2 B | %40
 [C_EA]2) !fermata!z2!f! z!>(! ([F,F][G,=E][A,_E])!>)! | %41
 ([B,D]F,)!p! z!<(! [F,B,D] z [CF] z [B,E] | z [A,D] z [_A,=B,D] z [G,CE] z [G,CE] | %43
 z [F,CE] z [F,_B,-D-]!<)!!pp! [B,D]4- | [B,D][B,D]!>(! z [B,D] z [G,B,D] z [A,C]!>)! | %45
 [F,B,] z!f! z !>![B,EG]2 !>![B,CE]2 !>![A,CF] | z !>![F,B,]2 !>![G,B,E]2 !>![G,B,C]2 !>![A,D] | %47
 B, z!f! !>![Bb]2 z4 |] %48
V:3
 z2 !>![E,,E,]2 !>![G,,G,]2 !>![F,,F,]2 | [D,,D,] z !>![C,,C,]2 !>![E,,E,]2 !>![F,,F,]2 | %2
 !>![G,,G,] z z !>![_G,,_G,] !>![F,,F,] z z !>![=E,,=E,] | !>![_E,,_E,] z z!p! .C, .F, z z2 | %4
 B,, z B,,, z (!^!=E,4 | (F,2) !^!G,2 F,2 _E,2 | [B,,D,]) z z!ppp! .[G,,G,] .[E,,E,] z z .[F,,F,] | %7
 B,, z B,,, z (!^!=E,4 | F,2) ([G,,^F,]2 [G,,G,]2 [D,A,]2 | %9
 [G,B,]) z z!pp! .[E,,E,] .[C,,C,] z z .[D,,D,] | G,, z z2!p! (C,2 D,2 | E,2 =E,2 F,2 G,2 | %12
 _A,2 =A,2 _A,) z (!>!B,2 | A,2) (!>!=B,2 C2) (C,2 | F,) z!p! (D,2 B,,2 C,2 | %15
 F,,) z F, z F,,2 F,2 | F,,2 F,2 F,,2 F,2 | z2 F,4 (E,D,/C,/ | =B,,2 _B,,2 A,,2 G,,2 | %19
 F,,2) !fermata!z2 [B,,,B,,]4- | [B,,,B,,] z (B,,2 A,,2 G,,2 | ^F,,2 =F,,2 E,,2 C,,2) | %22
 !>![A,,,A,,]2 !>![B,,,B,,]2 (=E,4 | F,) z (F,2 =E,2 _E,2 | %24
 [B,,D,]) z !>![E,,E,]2 !>![G,,G,]2 !>![F,,F,]2 | [D,,D,] z !>![C,,C,]2 !>![E,,E,]2 !>![F,,F,]2 | %26
 !>![G,,G,] z z [_G,,_G,] !>![F,,F,] z z !>![=E,,=E,] | [_E,,_E,] z z!pp! .C, .F, z z2 | %28
 B,, z B,,, z (=E,4 | F,2 !^!G,2 F,2 _E,2 | [B,,D,]) z B,,, z (!^!=E,4 | %31
 F,2 [A,,^F,]2 [G,,G,]2 [D,A,]2 | G,) z G,, z (C,2 D,2 | E,2 =E,2 F,2 G,2 | %34
 _A,2 =A,2 _B,) z (!>!B,2 | A,2) (!>!=B,2 C2) (C,2 | F,,) z F, z F,,2 F,2 | F,,2 F,2 F,,2 F,2 | %38
 z2 F,4 (E,D,/C,/ | =B,,2 _B,,2 A,,2 G,,2 | F,,2) z2 !>![B,,,B,,]4- | [B,,,B,,]2 (B,,2 A,,2 G,,2 | %42
 ^F,,2 =F,,2 E,,2 C,,2) | !>![A,,,A,,]2 !>![B,,,B,,]2 (=E,4 | F,) z (F,2 =E,2 _E,2 | %45
 [B,,D,]) z !>![E,,E,]2 !>![G,,G,]2 !>![F,,F,]2 | [D,,D,] z !>![C,,C,]2 !>![E,,E,]2 !>![F,,F,]2 | %47
 B,, z !>![B,,,B,,]2 z4 |] %48
V:4
 x8 | x8 | x8 | x8 | x4 z2 !>!B,,2- | B,,6 F,,2 | x8 | x4 z2 !>!B,,2- | B,,2 x6 | x8 | x8 | x8 | %12
 x8 | x8 | x8 | x8 | x8 | F,,2 z2 F,,4- | F,,8 | x8 | x8 | x8 | x8 | x2 F,,6 | x8 | x8 | x8 | x8 | %28
 x4 z2 !^!B,,2- | B,,6 F,,2 | x4 z2 !>!B,,2- | B,,2 x6 | x8 | x8 | x8 | x8 | x8 | x8 | %38
 F,,2 z2 F,,4- | F,,8 | x8 | x8 | x8 | x8 | x2 F,,6 | x8 | x8 | x8 |] %48
V:5
 x8 | x8 | x8 | x8 | x8 | x8 | x8 | x8 | x8 | x8 | x8 | x8 | x8 | x8 | x8 | x8 | x8 | %17
 x4 =B,2 !arpeggio![CG]2 | [F_A]2 [=EG]2 F2 [CE]2 | x8 | x8 | x8 | x8 | x8 | x8 | x8 | x8 | x8 | %28
 x8 | x8 | x8 | x8 | x8 | x8 | x8 | x8 | x8 | x8 | x4 =B,2 !arpeggio![CG]2 | %39
 [F_A]2 [=EG]2 F2 [CE]2 | x8 | x8 | x8 | x8 | x8 | x8 | x8 | x8 |] %48

